X:1
T: Delvin House
C:
R:Strathspey
Q: 128
K:C
M:4/4
L:1/16
|:e2|c4 G3e c4 G3E|Dd3 d3c BG3 A3B|c3e d3e c3e A3c|G3A G3F Gc3 c2e2|
c4 G3e c4 G3E|Dd3 d3c BG3 A3B|c3e d3e c3e A3c|G3A G3F Gc3 c2e2|
g3e c3e cdef g3e|f3d B3d Bcde f3d|g3e c3e g3e c3G|Af3 e3d e3c c3e|
g3e c3e cdef g3e|f3d B3d Bcde f3d|eg3 de3 ce3 Ac3|G3A G3F Gc3 c2:|
